X: 32010
T: Peeler's Jacket, The
R: reel
M: 4/4
K: Gmajor
|G2 BG DGBG|FGAB (3ccc Bc|dggf d2eg|fdcA BGAF|
G2 BG DGBG|FGAB c2 Bc|dggf d2eg|1 fdcA BGGF:|2 fdcA BGBd||
|:~g3 e d2 ef|(3ggg ga bgaf|gage d2 eg|fdcA BGBd|
~g3 e d2 ef|~g3 a bgaf|gbag fdeg|1 fdcA BGGe:|2 fdcA BGAF||

